X: 6527
T: Cataroni
R: jig
M: 6/8
K: Gmajor
|:D|DGG GB,B,|DED B,A,G,|DGG GFG|ABA AFD|	
G2B d2e|d2B AGA|B2D DEF|G3 G2:|
|:d|BGG Bdd|efe d2d|BGG Bdd|gfg dBd|gfg aAA|
ABA AFD|G2B d2e|d2B AGA|B2D DEF|G3 G2:|

